gube/testdata/Test_LUT32.CUBE
#Created by: Adobe Photoshop Export Color Lookup Plugin
TITLE "Test CubeLut 32"
#LUT size
LUT_3D_SIZE 8
#data domain
#LUT data points
DOMAIN_MIN 0.000000 0.000000 0.000000
DOMAIN_MAX 0.903226 0.903226 0.903226
0.056305 0.006653 0.050476
0.178741 0.010468 0.101929
0.289398 0.009918 0.157562
0.400024 0.007416 0.158783
0.489716 0.003906 0.162567
0.572540 0.000000 0.164032
0.651917 0.000000 0.158081
0.735352 0.000183 0.155396
0.073822 0.068756 0.155304
0.218414 0.078796 0.173004
0.336456 0.073669 0.177124
0.440247 0.061523 0.177124
0.528839 0.052063 0.178284
0.606842 0.054199 0.176849
0.684906 0.063751 0.172974
0.770905 0.074341 0.170410
0.112823 0.154938 0.178070
0.247528 0.166565 0.193848
0.357880 0.184326 0.192841
0.458710 0.173401 0.191711
0.546967 0.164062 0.194641
0.627106 0.169312 0.188904
0.708618 0.180389 0.182281
0.797974 0.192841 0.178345
0.142090 0.253143 0.195404
0.272125 0.266693 0.209839
0.375366 0.287170 0.207397
0.473907 0.295685 0.210114
0.559418 0.290253 0.213226
0.636475 0.301147 0.206299
0.718018 0.314087 0.199982
0.809845 0.327454 0.194061
0.176086 0.360840 0.214844
0.297638 0.376617 0.227264
0.392273 0.398407 0.225861
0.494049 0.408813 0.228119
0.576965 0.419189 0.228882
0.654877 0.431122 0.222046
0.738739 0.444763 0.216003
0.831604 0.459747 0.210663
0.207153 0.479950 0.232422
0.320251 0.498596 0.241608
0.408386 0.522675 0.236237
0.513611 0.528503 0.237946
0.598328 0.544067 0.240814
0.679443 0.558167 0.237152
0.766541 0.572205 0.231506
0.861084 0.588135 0.226715
0.233093 0.607178 0.246246
0.340179 0.626678 0.253143
0.431274 0.646790 0.246124
0.533478 0.652283 0.245148
0.620575 0.665344 0.248383
0.706451 0.682404 0.251770
0.797119 0.697052 0.247406
0.894379 0.712830 0.243164
0.259521 0.735596 0.261200
0.361023 0.755066 0.266144
0.455658 0.769989 0.257416
0.553986 0.776062 0.253082
0.643738 0.786469 0.256683
0.733704 0.801147 0.260529
0.829346 0.817963 0.264130
0.929047 0.833496 0.260468
0.067657 0.006927 0.142365
0.183502 0.009827 0.203613
0.293365 0.010986 0.253174
0.404236 0.007965 0.255066
0.494598 0.003784 0.258118
0.577240 0.000000 0.259796
0.656158 0.000000 0.255890
0.740509 0.000702 0.254150
0.089935 0.058716 0.241089
0.230988 0.069061 0.258331
0.339233 0.077728 0.275574
0.443542 0.065338 0.274933
0.532532 0.055664 0.276520
0.610657 0.058716 0.275024
0.689514 0.068329 0.272095
0.776611 0.078735 0.270447
0.126709 0.156799 0.264893
0.259979 0.168518 0.281281
0.375458 0.177460 0.288086
0.473694 0.166412 0.282562
0.561493 0.156036 0.283875
0.638947 0.163177 0.280365
0.718506 0.175049 0.276672
0.806946 0.187836 0.274048
0.156769 0.255890 0.282501
0.283936 0.269043 0.297546
0.390259 0.283478 0.299866
0.487823 0.292999 0.289459
0.573456 0.286774 0.291779
0.651184 0.296936 0.285156
0.733856 0.309479 0.279419
0.826141 0.322754 0.274780
0.189911 0.364319 0.301697
0.310181 0.378876 0.315979
0.404785 0.397552 0.318420
0.505188 0.409393 0.308350
0.588501 0.418945 0.308441
0.666962 0.430237 0.302246
0.751282 0.443695 0.296967
0.843842 0.458923 0.292419
0.219635 0.484375 0.320221
0.333160 0.500977 0.332611
0.421570 0.522552 0.332214
0.522797 0.531982 0.318237
0.608673 0.545990 0.321564
0.690063 0.559631 0.318451
0.776855 0.573975 0.313690
0.871124 0.589874 0.309784
0.244507 0.611603 0.338531
0.353424 0.629120 0.348663
0.440948 0.649658 0.345428
0.540955 0.658020 0.326813
0.629578 0.669373 0.330139
0.716003 0.685822 0.334106
0.806244 0.700714 0.330627
0.903046 0.716522 0.327301
0.269775 0.739563 0.360474
0.374115 0.757416 0.369812
0.463104 0.775513 0.358887
0.561188 0.782043 0.342743
0.651215 0.792786 0.339539
0.741882 0.806763 0.343964
0.837158 0.823517 0.348572
0.933655 0.839569 0.350250
0.078156 0.005585 0.249481
0.192200 0.006592 0.319672
0.303436 0.007629 0.354340
0.405579 0.008392 0.370331
0.496521 0.003784 0.371155
0.579407 0.000000 0.372742
0.659607 0.000000 0.370605
0.744812 0.001587 0.370819
0.105133 0.046936 0.342957
0.242188 0.057312 0.360748
0.347778 0.065918 0.379089
0.445129 0.068359 0.392548
0.534973 0.058411 0.393066
0.613556 0.062225 0.390991
0.693115 0.071838 0.389862
0.781097 0.082306 0.390381
0.139557 0.145691 0.368805
0.269806 0.157684 0.385712
0.382294 0.167603 0.396088
0.475922 0.168213 0.402100
0.563873 0.158142 0.401581
0.641296 0.166016 0.397827
0.721252 0.177460 0.395691
0.810120 0.189697 0.395111
0.169067 0.257050 0.390228
0.293243 0.270142 0.405945
0.394562 0.283936 0.413635
0.498688 0.286285 0.405151
0.583984 0.281036 0.397858
0.660980 0.291351 0.391357
0.742188 0.304047 0.389160
0.831635 0.317780 0.389526
0.200745 0.365997 0.411560
0.318268 0.380463 0.426025
0.411896 0.397430 0.431641
0.513794 0.407074 0.413544
0.597870 0.419250 0.397247
0.677063 0.429688 0.391174
0.761353 0.442688 0.389618
0.851440 0.457855 0.391663
0.229309 0.486420 0.432678
0.340240 0.502930 0.445374
0.429688 0.522156 0.449127
0.529938 0.531494 0.429382
0.616028 0.548126 0.414185
0.698334 0.561462 0.409668
0.784760 0.575134 0.409119
0.877045 0.590546 0.412231
0.253693 0.613647 0.454163
0.360046 0.630829 0.466339
0.448242 0.649475 0.471039
0.548096 0.656342 0.454407
0.635437 0.669891 0.444855
0.721985 0.686310 0.445679
0.811707 0.700653 0.446442
0.905914 0.715820 0.451355
0.278473 0.742126 0.475616
0.380554 0.759613 0.487427
0.467407 0.777496 0.492920
0.567963 0.781433 0.477875
0.656677 0.792480 0.471619
0.746399 0.806580 0.474274
0.840576 0.822754 0.482300
0.930054 0.842590 0.483063
0.088196 0.003296 0.372955
0.201385 0.003021 0.443573
0.312592 0.003540 0.464264
0.411469 0.004028 0.479065
0.496674 0.003906 0.492279
0.579285 0.000000 0.496887
0.661102 0.000275 0.498352
0.747528 0.002686 0.500275
0.120148 0.034637 0.454071
0.253876 0.044586 0.471863
0.357178 0.052246 0.490936
0.450958 0.058167 0.506500
0.536255 0.060883 0.518280
0.615021 0.065186 0.518311
0.695312 0.074768 0.519135
0.784149 0.085205 0.521240
0.152252 0.133759 0.480499
0.279572 0.145660 0.497192
0.387848 0.156128 0.508453
0.479218 0.161652 0.519562
0.564117 0.161316 0.528809
0.641815 0.169495 0.527405
0.722260 0.181000 0.527222
0.811615 0.193298 0.528381
0.180786 0.246979 0.501953
0.301361 0.260681 0.517853
0.398224 0.276398 0.528076
0.502747 0.279938 0.527374
0.585938 0.280396 0.530060
0.662933 0.289948 0.527161
0.743958 0.302338 0.527100
0.833038 0.315857 0.528992
0.214111 0.366608 0.524109
0.326324 0.381805 0.539001
0.416626 0.399048 0.547363
0.520508 0.402466 0.541199
0.605408 0.410370 0.536224
0.683014 0.420776 0.532654
0.765778 0.433624 0.533173
0.854187 0.448761 0.537231
0.239410 0.488556 0.545288
0.347687 0.504974 0.558075
0.434021 0.524506 0.564728
0.536285 0.528442 0.557495
0.622742 0.541138 0.553223
0.703674 0.554413 0.551941
0.789368 0.567627 0.553040
0.879425 0.583282 0.558167
0.263397 0.616302 0.565704
0.367340 0.633362 0.577881
0.452972 0.652191 0.584381
0.554810 0.655487 0.578156
0.642090 0.666962 0.574158
0.727203 0.682983 0.577515
0.815857 0.697571 0.578827
0.908051 0.713776 0.582886
0.287872 0.745239 0.586182
0.387573 0.762573 0.597900
0.472137 0.780792 0.604431
0.573608 0.782990 0.597351
0.661346 0.793304 0.593109
0.749817 0.807434 0.596466
0.843750 0.823395 0.603333
0.927551 0.847015 0.601898
0.098450 0.000824 0.500336
0.213470 0.000061 0.550934
0.320038 0.000000 0.570343
0.418091 0.000000 0.582123
0.501709 0.000000 0.593994
0.581024 0.000000 0.608734
0.663147 0.001129 0.613098
0.751068 0.004242 0.616821
0.133179 0.024963 0.561707
0.262787 0.036102 0.577728
0.362396 0.044922 0.595306
0.455750 0.050781 0.608948
0.539062 0.058838 0.622192
0.617249 0.068817 0.632019
0.698242 0.078430 0.634369
0.788025 0.088867 0.637909
0.161865 0.126221 0.586639
0.286011 0.139496 0.601562
0.390656 0.151428 0.612122
0.482758 0.155914 0.621643
0.565491 0.163269 0.634613
0.643890 0.173187 0.642395
0.724976 0.184784 0.643677
0.815094 0.197144 0.646179
0.188263 0.242218 0.604645
0.305206 0.257294 0.620056
0.400269 0.273804 0.630066
0.504517 0.276611 0.629547
0.585968 0.284119 0.639343
0.663757 0.294495 0.643768
0.745422 0.306793 0.645294
0.835114 0.320343 0.648529
0.219330 0.364502 0.624298
0.328339 0.381500 0.639008
0.417664 0.400330 0.647522
0.520599 0.404572 0.642914
0.608154 0.411163 0.647888
0.685608 0.422058 0.648895
0.767731 0.435974 0.649567
0.856110 0.452209 0.653046
0.249756 0.491302 0.648743
0.355988 0.507660 0.660980
0.440460 0.527130 0.668243
0.539368 0.532196 0.662170
0.622864 0.544708 0.656128
0.703308 0.558746 0.655518
0.789490 0.572418 0.657227
0.880402 0.588867 0.662384
0.274231 0.619446 0.667938
0.375519 0.636414 0.679260
0.458923 0.655548 0.686066
0.558136 0.659637 0.680573
0.639709 0.672699 0.671783
0.725494 0.688812 0.675476
0.815979 0.702881 0.678589
0.909607 0.718964 0.684387
0.298157 0.748840 0.686951
0.395447 0.766052 0.697723
0.477997 0.784515 0.704285
0.577057 0.787506 0.698059
0.659180 0.798706 0.689545
0.749146 0.812347 0.693878
0.841949 0.829956 0.699310
0.925507 0.854401 0.699127
0.096802 0.000000 0.619537
0.213776 0.000000 0.645966
0.319702 0.000000 0.663849
0.419830 0.000000 0.673706
0.504211 0.000000 0.682587
0.584076 0.000000 0.698120
0.666992 0.002380 0.712677
0.755585 0.006378 0.717590
0.132782 0.026917 0.657288
0.263092 0.038116 0.671997
0.362823 0.047028 0.687866
0.457275 0.052521 0.699371
0.541321 0.060425 0.710602
0.620270 0.071350 0.723328
0.702240 0.082520 0.732941
0.793060 0.093018 0.737457
0.161652 0.128723 0.680359
0.286438 0.141998 0.693878
0.390289 0.154541 0.703491
0.483765 0.158539 0.710876
0.567169 0.165680 0.721771
0.646454 0.176910 0.734619
0.728455 0.189575 0.741364
0.819275 0.202057 0.744781
0.187927 0.245361 0.696442
0.305695 0.260254 0.710602
0.400848 0.276855 0.719879
0.505066 0.279755 0.718689
0.587280 0.287079 0.726532
0.665985 0.298920 0.738342
0.748566 0.311829 0.743713
0.839050 0.325439 0.747894
0.219269 0.368042 0.713928
0.328918 0.384857 0.727783
0.418640 0.403534 0.735535
0.520752 0.408386 0.730957
0.609161 0.414581 0.734650
0.687378 0.427460 0.744812
0.770355 0.441559 0.748230
0.859833 0.457642 0.752777
0.250031 0.495087 0.736420
0.356720 0.511444 0.747223
0.442261 0.530731 0.754181
0.540710 0.536469 0.749268
0.624847 0.548828 0.744720
0.704529 0.564758 0.750183
0.791779 0.578308 0.753235
0.883911 0.594635 0.759277
0.284821 0.623291 0.757294
0.384308 0.640228 0.767395
0.466278 0.659363 0.773621
0.563263 0.664093 0.768585
0.644440 0.676941 0.762024
0.725983 0.695007 0.762268
0.817932 0.708954 0.766693
0.913269 0.724823 0.773682
0.309052 0.752960 0.774933
0.404083 0.770233 0.784271
0.484894 0.788818 0.790192
0.581787 0.792419 0.784210
0.663513 0.803345 0.778168
0.750305 0.817841 0.779968
0.840057 0.838348 0.782715
0.924927 0.862518 0.784515
0.092987 0.000000 0.720581
0.214142 0.000000 0.736206
0.322296 0.000000 0.751160
0.423004 0.000000 0.758240
0.507874 0.000000 0.764465
0.588226 0.000580 0.777832
0.671844 0.003662 0.793030
0.762054 0.009308 0.803558
0.132904 0.029236 0.746979
0.263641 0.040588 0.759979
0.364227 0.049591 0.771881
0.459595 0.054840 0.781250
0.544800 0.062103 0.790833
0.624451 0.073029 0.801239
0.707428 0.085419 0.812439
0.799530 0.097229 0.820587
0.160492 0.132721 0.765442
0.285797 0.146149 0.777161
0.388397 0.159637 0.785767
0.484192 0.162994 0.789856
0.568085 0.170258 0.798157
0.647827 0.181519 0.808502
0.730743 0.195557 0.818665
0.822357 0.208862 0.824860
0.187836 0.249359 0.780121
0.306580 0.264221 0.792114
0.401794 0.280853 0.799988
0.506165 0.283966 0.797821
0.589050 0.291107 0.803619
0.668518 0.302917 0.813141
0.752167 0.317474 0.823242
0.843323 0.331451 0.829163
0.219543 0.372406 0.795532
0.330353 0.388885 0.807190
0.420288 0.407501 0.813721
0.522278 0.412537 0.809021
0.610840 0.419067 0.811157
0.689911 0.431915 0.819458
0.774170 0.447662 0.829041
0.864532 0.463715 0.834503
0.251526 0.499390 0.814972
0.358246 0.515778 0.824158
0.444061 0.535034 0.829987
0.542328 0.541016 0.824951
0.626617 0.553619 0.821411
0.707306 0.569336 0.826691
0.795837 0.584167 0.835876
0.888885 0.600433 0.842468
0.286469 0.627930 0.833099
0.386017 0.644928 0.841675
0.468750 0.663971 0.847168
0.566040 0.668915 0.842407
0.647491 0.681824 0.837952
0.729370 0.699982 0.839417
0.821899 0.714844 0.847351
0.918274 0.730591 0.854797
0.319397 0.757690 0.851105
0.412750 0.774933 0.859131
0.492340 0.793457 0.864105
0.587219 0.797516 0.858490
0.669037 0.808167 0.854828
0.755249 0.822815 0.857330
0.839111 0.847015 0.856506
0.925110 0.870972 0.859711
0.093414 0.000000 0.806000
0.214996 0.000000 0.819183
0.326111 0.000000 0.830688
0.426697 0.000000 0.835266
0.512085 0.000000 0.839264
0.592896 0.001434 0.850433
0.677277 0.004883 0.863586
0.769318 0.011566 0.874878
0.132599 0.032196 0.828003
0.263031 0.044067 0.838562
0.362701 0.054596 0.846191
0.459534 0.059601 0.852356
0.547150 0.065430 0.861511
0.629211 0.074860 0.871796
0.712219 0.088013 0.880188
0.802826 0.102905 0.887573
0.159668 0.137054 0.842438
0.285400 0.150665 0.852448
0.387085 0.164795 0.859741
0.484711 0.167938 0.861084
0.569092 0.175262 0.867035
0.649292 0.186646 0.875397
0.732880 0.200745 0.883789
0.825226 0.215729 0.892273
0.188080 0.253601 0.855804
0.307587 0.268524 0.865662
0.403015 0.285400 0.872070
0.507507 0.288574 0.869049
0.591003 0.295746 0.872986
0.671143 0.307434 0.880646
0.755676 0.321960 0.889069
0.847687 0.337799 0.898010
0.219879 0.377045 0.869568
0.332092 0.393280 0.879028
0.422211 0.411896 0.884430
0.524414 0.416931 0.879303
0.612793 0.423920 0.880310
0.692688 0.436768 0.887085
0.778137 0.452515 0.895264
0.869446 0.470245 0.904358
0.253601 0.503845 0.886230
0.360229 0.520355 0.894165
0.446167 0.539642 0.899017
0.544708 0.545532 0.893646
0.628876 0.558655 0.891052
0.710571 0.574158 0.895996
0.800232 0.589111 0.904388
0.894348 0.606476 0.913910
0.288483 0.632751 0.902466
0.388031 0.649750 0.909851
0.470886 0.668762 0.914490
0.568451 0.673737 0.909393
0.649963 0.686951 0.906525
0.732941 0.704926 0.909485
0.826630 0.719879 0.917511
0.919250 0.739716 0.924530
0.321350 0.762756 0.918732
0.414825 0.780029 0.925812
0.495239 0.798401 0.930206
0.590027 0.802734 0.924805
0.672699 0.813232 0.923065
0.756195 0.830658 0.924622
0.839600 0.855042 0.925049
0.925720 0.879364 0.929565
