gube/testdata/Test_LUT32.CUBE
#Created by: Adobe Photoshop Export Color Lookup Plugin
TITLE "Test CubeLut 32"
#LUT size
LUT_3D_SIZE 32
#data domain
DOMAIN_MIN 0.0 0.0 0.0
DOMAIN_MAX 1.0 1.0 1.0
#LUT data points
0.056305 0.006653 0.050476
0.088318 0.008270 0.063904
0.117767 0.009735 0.077332
0.149048 0.010162 0.089447
0.178741 0.010468 0.101929
0.207489 0.010681 0.115265
0.235443 0.010681 0.129059
0.262878 0.010406 0.143219
0.289398 0.009918 0.157562
0.319061 0.009521 0.157806
0.347351 0.008942 0.158051
0.374725 0.008148 0.158234
0.400024 0.007416 0.158783
0.423431 0.006744 0.159760
0.446045 0.005920 0.160706
0.468079 0.004944 0.161652
0.489716 0.003906 0.162567
0.510895 0.002716 0.163422
0.531830 0.001495 0.164307
0.552704 0.000244 0.165161
0.572540 0.000000 0.164032
0.592285 0.000000 0.162140
0.612366 0.000000 0.160309
0.632324 0.000000 0.158905
0.651917 0.000000 0.158081
0.672058 0.000000 0.157288
0.692566 0.000000 0.156586
0.713715 0.000092 0.155945
0.735352 0.000183 0.155396
0.757721 0.000336 0.154877
0.780762 0.000458 0.154449
0.804382 0.000580 0.154022
0.062927 0.022797 0.075623
0.097015 0.024048 0.089447
0.126953 0.025085 0.104340
0.156677 0.025208 0.119141
0.185791 0.024628 0.133118
0.214233 0.023804 0.147705
0.241669 0.022858 0.162903
0.272827 0.021881 0.163483
0.302673 0.020660 0.164062
0.331512 0.019073 0.164276
0.359131 0.017334 0.164520
0.385986 0.015381 0.164642
0.411438 0.013367 0.164734
0.435699 0.011353 0.164917
0.459015 0.009369 0.165100
0.481415 0.007324 0.165527
0.502991 0.005280 0.166229
0.524017 0.003265 0.167053
0.544464 0.001434 0.168182
0.564423 0.000183 0.168518
0.583282 0.000275 0.167297
0.602295 0.000366 0.166199
0.621399 0.000458 0.165192
0.640869 0.000549 0.164215
0.660614 0.000702 0.163422
0.680847 0.002319 0.162598
0.701569 0.004181 0.161926
0.722870 0.006104 0.161285
0.744781 0.008240 0.160706
0.767303 0.010376 0.160187
0.790527 0.012604 0.159851
0.814392 0.014801 0.159363
0.069183 0.038025 0.101624
0.102936 0.038544 0.116211
0.135284 0.038696 0.131378
0.167175 0.037994 0.146820
0.195068 0.037170 0.163483
0.224762 0.038147 0.168365
0.256012 0.036499 0.169403
0.286346 0.034363 0.169922
0.315430 0.031982 0.170349
0.343536 0.029236 0.170593
0.370544 0.026245 0.170776
0.396820 0.023102 0.170837
0.421814 0.019897 0.170929
0.445709 0.017090 0.170990
0.468689 0.014862 0.171265
0.490753 0.012817 0.171600
0.512177 0.010986 0.172302
0.532990 0.009399 0.173096
0.553406 0.008087 0.174194
0.572754 0.008698 0.173676
0.591675 0.010529 0.172394
0.610657 0.012451 0.171265
0.629883 0.014465 0.170319
0.649445 0.016541 0.169342
0.669312 0.018707 0.168518
0.689667 0.020905 0.167725
0.710541 0.023193 0.167084
0.732056 0.025513 0.166443
0.754181 0.027924 0.165894
0.776947 0.030365 0.165436
0.800262 0.032806 0.165009
0.824219 0.035339 0.164520
0.071381 0.053131 0.127197
0.105103 0.052948 0.143036
0.137207 0.052551 0.159393
0.174866 0.054077 0.163879
0.207703 0.056061 0.168213
0.237305 0.057587 0.172180
0.267853 0.055786 0.173126
0.297729 0.053650 0.173462
0.326050 0.051361 0.173767
0.353821 0.048706 0.173767
0.380371 0.045929 0.173889
0.406494 0.042694 0.173981
0.431152 0.039856 0.174103
0.454773 0.037170 0.174042
0.477386 0.034851 0.174255
0.499268 0.032623 0.174622
0.520508 0.030701 0.175293
0.541138 0.029053 0.176086
0.561371 0.027588 0.177216
0.580322 0.029419 0.175873
0.599182 0.031433 0.174622
0.618225 0.033600 0.173523
0.637482 0.035858 0.172455
0.657043 0.038147 0.171570
0.677002 0.040466 0.170715
0.697540 0.042908 0.169891
0.718536 0.045410 0.169250
0.740234 0.047852 0.168579
0.762512 0.050446 0.168121
0.785400 0.053070 0.167633
0.808899 0.055664 0.167175
0.832886 0.058319 0.166809
0.073822 0.068756 0.155304
0.110443 0.071472 0.161163
0.145538 0.074463 0.165833
0.182922 0.076660 0.169403
0.218414 0.078796 0.173004
0.249481 0.079956 0.176086
0.279480 0.078064 0.176819
0.308594 0.075928 0.177063
0.336456 0.073669 0.177124
0.363647 0.070892 0.177002
0.389893 0.068024 0.176941
0.415558 0.064667 0.177002
0.440247 0.061523 0.177124
0.463623 0.058746 0.177124
0.486115 0.056213 0.177368
0.507812 0.054016 0.177704
0.528839 0.052063 0.178284
0.549347 0.050385 0.179077
0.569183 0.049805 0.179504
0.587982 0.051941 0.178101
0.606842 0.054199 0.176849
0.625885 0.056458 0.175659
0.645203 0.058838 0.174744
0.664825 0.061249 0.173798
0.684906 0.063751 0.172974
0.705536 0.066284 0.172211
0.726685 0.068909 0.171509
0.748535 0.071594 0.170898
0.770905 0.074341 0.170410
0.793884 0.077179 0.169952
0.817474 0.079987 0.169586
0.841614 0.082733 0.169128
0.084137 0.089783 0.162201
0.119934 0.092834 0.166931
0.154480 0.095856 0.171539
0.191132 0.098114 0.175049
0.226013 0.100311 0.178619
0.257812 0.103638 0.180786
0.286896 0.103638 0.181488
0.315491 0.101715 0.181213
0.342926 0.099487 0.181335
0.369904 0.096832 0.180817
0.395813 0.094025 0.180573
0.421417 0.090668 0.180267
0.446167 0.087219 0.180573
0.470093 0.083832 0.180939
0.492645 0.081116 0.181305
0.514618 0.078522 0.182037
0.535553 0.076721 0.182617
0.556030 0.075104 0.183441
0.575409 0.075836 0.182983
0.594238 0.078094 0.181549
0.613220 0.080475 0.180267
0.632355 0.082947 0.179169
0.651794 0.085419 0.178223
0.671631 0.088043 0.177338
0.691925 0.090668 0.176544
0.712769 0.093292 0.175781
0.734161 0.096100 0.175110
0.756348 0.098816 0.174438
0.778992 0.101654 0.173920
0.802307 0.104492 0.173523
0.826111 0.107391 0.173096
0.850464 0.110291 0.172699
0.094635 0.110596 0.167755
0.129059 0.113770 0.172455
0.163177 0.116882 0.177063
0.199280 0.119232 0.180542
0.233582 0.121552 0.183960
0.264526 0.125183 0.185822
0.292694 0.130188 0.186188
0.321014 0.128967 0.185944
0.348297 0.126831 0.185486
0.375031 0.124298 0.184875
0.400909 0.121460 0.184265
0.426392 0.118164 0.183960
0.450958 0.114868 0.183746
0.475067 0.111267 0.184235
0.498169 0.108063 0.184814
0.520325 0.105316 0.185699
0.541595 0.103088 0.186676
0.562103 0.101562 0.187469
0.581177 0.103424 0.186096
0.600128 0.105743 0.184723
0.619202 0.108246 0.183502
0.638519 0.110718 0.182404
0.658081 0.113373 0.181396
0.678131 0.116028 0.180481
0.698578 0.118805 0.179565
0.719696 0.121582 0.178772
0.741394 0.124390 0.178101
0.763824 0.127228 0.177460
0.786743 0.130096 0.177002
0.810272 0.132996 0.176514
0.834320 0.135986 0.176117
0.858856 0.138947 0.175720
0.104065 0.132385 0.173035
0.137360 0.135651 0.177734
0.171295 0.138794 0.182281
0.206879 0.141266 0.185638
0.240753 0.143616 0.189056
0.270660 0.147797 0.190308
0.298431 0.152740 0.190613
0.326019 0.157318 0.189789
0.353180 0.155243 0.189331
0.380005 0.152618 0.188293
0.405701 0.149933 0.187561
0.431000 0.146820 0.186768
0.455139 0.143738 0.187012
0.478302 0.140900 0.187714
0.501160 0.137848 0.188446
0.523163 0.135284 0.189178
0.544830 0.132874 0.189880
0.565704 0.131439 0.190277
0.585205 0.133423 0.188354
0.604980 0.135437 0.186493
0.624207 0.137878 0.185181
0.643677 0.140472 0.184052
0.663269 0.143341 0.182861
0.683380 0.146118 0.181885
0.703827 0.149170 0.180786
0.725006 0.152130 0.179810
0.746735 0.155182 0.178986
0.769318 0.158112 0.178223
0.792450 0.161102 0.177765
0.816193 0.164062 0.177338
0.840393 0.167114 0.176910
0.865082 0.170135 0.176575
0.112823 0.154938 0.178070
0.145599 0.158234 0.182739
0.179108 0.161499 0.187317
0.214386 0.164032 0.190582
0.247528 0.166565 0.193848
0.276550 0.171051 0.194855
0.303986 0.176117 0.194794
0.331329 0.181000 0.193909
0.357880 0.184326 0.192841
0.384583 0.181732 0.191833
0.410339 0.179047 0.190582
0.435150 0.176086 0.190948
0.458710 0.173401 0.191711
0.481659 0.170715 0.192383
0.503784 0.168365 0.193085
0.525665 0.166016 0.193878
0.546967 0.164062 0.194641
0.567810 0.163025 0.194672
0.587494 0.164948 0.192688
0.607330 0.166962 0.190765
0.627106 0.169312 0.188904
0.647125 0.171783 0.187164
0.667236 0.174530 0.185486
0.687744 0.177368 0.183868
0.708618 0.180389 0.182281
0.730103 0.183533 0.180756
0.752106 0.186646 0.179718
0.774689 0.189850 0.178894
0.797974 0.192841 0.178345
0.821930 0.195892 0.177856
0.846283 0.199005 0.177460
0.871124 0.202026 0.177094
0.120392 0.178406 0.182648
0.153259 0.181793 0.187256
0.186493 0.185150 0.191772
0.221222 0.187744 0.194916
0.254028 0.190369 0.198181
0.281219 0.195557 0.198914
0.308289 0.200623 0.198792
0.336212 0.205383 0.197296
0.362396 0.210114 0.196136
0.388824 0.211731 0.194458
0.414246 0.208954 0.194916
0.438782 0.206085 0.195618
0.462219 0.203522 0.196289
0.484894 0.201202 0.197021
0.506897 0.199036 0.197754
0.528259 0.197205 0.198578
0.549408 0.195465 0.199371
0.569611 0.195435 0.199097
0.589050 0.197601 0.197144
0.608612 0.199982 0.195282
0.628174 0.202515 0.193512
0.647949 0.205231 0.191803
0.668091 0.208069 0.190125
0.688507 0.211060 0.188538
0.709442 0.214142 0.186951
0.731018 0.217377 0.185425
0.753387 0.220398 0.183929
0.776642 0.223541 0.182343
0.800812 0.226379 0.180786
0.825775 0.229218 0.179169
0.851257 0.232056 0.177643
0.876434 0.235107 0.177002
0.127533 0.202576 0.186981
0.160828 0.206085 0.191589
0.193695 0.209534 0.196136
0.227966 0.212158 0.199310
0.260315 0.214935 0.202423
0.286865 0.220398 0.202759
0.312622 0.225891 0.202637
0.340240 0.230560 0.201080
0.367004 0.235199 0.199188
0.392944 0.239319 0.198822
0.418274 0.239075 0.199524
0.442657 0.236328 0.200195
0.466003 0.233948 0.200928
0.488525 0.231781 0.201630
0.510315 0.229919 0.202423
0.531586 0.228271 0.203217
0.552338 0.226959 0.203979
0.572205 0.227692 0.203247
0.591400 0.230194 0.201416
0.610748 0.232788 0.199646
0.630188 0.235504 0.197906
0.649933 0.238373 0.196198
0.669952 0.241394 0.194611
0.690430 0.244507 0.193024
0.711365 0.247711 0.191406
0.733002 0.250916 0.189941
0.755463 0.254089 0.188385
0.778717 0.257263 0.186859
0.802826 0.260315 0.185333
0.827606 0.263306 0.183807
0.852844 0.266388 0.182343
0.878693 0.269318 0.180847
0.134338 0.227570 0.191132
0.168182 0.231140 0.195709
0.200714 0.234619 0.200195
0.234589 0.237396 0.203308
0.266266 0.240417 0.206116
0.292145 0.246124 0.206451
0.317596 0.251587 0.206299
0.344330 0.256561 0.204407
0.370941 0.261078 0.202789
0.397644 0.264526 0.203430
0.422302 0.268433 0.204132
0.446594 0.267059 0.204803
0.469818 0.264771 0.205536
0.492218 0.262726 0.206268
0.513885 0.261078 0.207031
0.534973 0.259766 0.207794
0.555664 0.258575 0.208649
0.575165 0.260193 0.207458
0.594330 0.262756 0.205566
0.613617 0.265503 0.203857
0.632996 0.268372 0.202209
0.652710 0.271362 0.200500
0.672791 0.274445 0.198853
0.693329 0.277679 0.197357
0.714386 0.280945 0.195770
0.736115 0.284241 0.194214
0.758606 0.287537 0.192780
0.781830 0.290771 0.191223
0.806000 0.293884 0.189758
0.830780 0.297028 0.188232
0.855560 0.300537 0.186829
0.881073 0.303741 0.185425
0.142090 0.253143 0.195404
0.175659 0.256836 0.199951
0.207947 0.260437 0.204437
0.241272 0.263245 0.207489
0.272125 0.266693 0.209839
0.297668 0.272430 0.210052
0.322357 0.278076 0.209991
0.348602 0.283081 0.208130
0.375366 0.287170 0.207397
0.402130 0.290497 0.208038
0.427124 0.294128 0.208710
0.450714 0.297913 0.209473
0.473907 0.295685 0.210114
0.496246 0.293793 0.210846
0.517822 0.292297 0.211639
0.538788 0.291138 0.212402
0.559418 0.290253 0.213226
0.578613 0.292603 0.211487
0.597748 0.295319 0.209717
0.617035 0.298157 0.207947
0.636475 0.301147 0.206299
0.656189 0.304260 0.204651
0.676300 0.307404 0.203033
0.696899 0.310699 0.201508
0.718018 0.314087 0.199982
0.739838 0.317505 0.198517
0.762482 0.320770 0.197021
0.785858 0.324127 0.195526
0.809845 0.327454 0.194061
0.834625 0.330688 0.192596
0.859070 0.334412 0.191254
0.884186 0.338013 0.189941
0.150055 0.279358 0.199951
0.183289 0.283081 0.204468
0.215179 0.286774 0.208954
0.248108 0.289703 0.211853
0.278076 0.293457 0.213867
0.303192 0.299286 0.213928
0.327667 0.304962 0.213806
0.352509 0.310364 0.212067
0.379242 0.314178 0.212036
0.406952 0.316925 0.212555
0.432007 0.320374 0.213196
0.455627 0.324097 0.213959
0.478271 0.326660 0.214661
0.500580 0.324951 0.215454
0.522064 0.323517 0.216187
0.543030 0.322571 0.217010
0.563385 0.322418 0.217285
0.582458 0.325043 0.215515
0.601685 0.327820 0.213654
0.620972 0.330750 0.211975
0.640472 0.333801 0.210266
0.660278 0.336945 0.208679
0.680481 0.340240 0.207123
0.701141 0.343567 0.205566
0.722382 0.347015 0.204041
0.744354 0.350433 0.202606
0.767120 0.353851 0.201141
0.790588 0.357239 0.199677
0.814362 0.360809 0.198303
0.839020 0.364227 0.196869
0.863129 0.368286 0.195679
0.887848 0.372192 0.194427
0.158447 0.306061 0.204681
0.191284 0.309875 0.209198
0.222687 0.313568 0.213562
0.255157 0.316650 0.216461
0.284271 0.320801 0.218079
0.309052 0.326599 0.218109
0.332916 0.332458 0.217926
0.357147 0.337982 0.216248
0.383575 0.341675 0.216614
0.411560 0.343994 0.217133
0.437134 0.347076 0.217773
0.460724 0.350647 0.218445
0.483276 0.354584 0.219208
0.505219 0.356049 0.219971
0.526642 0.354858 0.220734
0.547546 0.354034 0.221588
0.567566 0.354767 0.221191
0.586761 0.357422 0.219360
0.605957 0.360260 0.217621
0.625305 0.363220 0.215881
0.644836 0.366425 0.214264
0.664734 0.369598 0.212677
0.684998 0.372955 0.211151
0.705841 0.376373 0.209625
0.727325 0.379761 0.208069
0.749420 0.383301 0.206696
0.772339 0.386688 0.205231
0.795959 0.390167 0.203796
0.819489 0.394043 0.202484
0.843903 0.397644 0.201172
0.867950 0.401825 0.199982
0.892365 0.406036 0.198792
0.167114 0.333221 0.209625
0.199432 0.337097 0.214142
0.230530 0.340912 0.218536
0.262543 0.344025 0.221344
0.290771 0.348480 0.222504
0.315186 0.354431 0.222443
0.338715 0.360260 0.222168
0.361603 0.366241 0.220795
0.387604 0.369843 0.221283
0.416656 0.371490 0.221680
0.442383 0.374329 0.222260
0.466003 0.377747 0.222961
0.488495 0.381470 0.223694
0.510162 0.385529 0.224457
0.531494 0.386139 0.225250
0.552368 0.385468 0.226105
0.572144 0.387024 0.225006
0.591309 0.389709 0.223206
0.610596 0.392670 0.221497
0.630005 0.395691 0.219879
0.649628 0.398895 0.218201
0.669617 0.402130 0.216614
0.690094 0.405518 0.215118
0.711060 0.408936 0.213593
0.732727 0.412415 0.212128
0.755035 0.415894 0.210663
0.778107 0.419434 0.209229
0.801880 0.422913 0.207794
0.825165 0.427032 0.206604
0.849213 0.430969 0.205383
0.873322 0.435242 0.204193
0.897705 0.439484 0.203064
0.176086 0.360840 0.214844
0.208038 0.364746 0.219360
0.238678 0.368652 0.223755
0.270203 0.371887 0.226471
0.297638 0.376617 0.227264
0.321686 0.382568 0.227112
0.344635 0.388519 0.226868
0.367035 0.394531 0.225647
0.392273 0.398407 0.225861
0.421631 0.399597 0.226257
0.447906 0.401917 0.226776
0.471497 0.405212 0.227448
0.494049 0.408813 0.228119
0.515686 0.412689 0.229004
0.536652 0.416901 0.229736
0.557587 0.416809 0.230621
0.576965 0.419189 0.228882
0.596283 0.421936 0.227051
0.615601 0.424866 0.225281
0.635162 0.427917 0.223663
0.654877 0.431122 0.222046
0.675079 0.434448 0.220490
0.695709 0.437836 0.218964
0.716858 0.441315 0.217499
0.738739 0.444763 0.216003
0.761261 0.448334 0.214569
0.784363 0.451935 0.213226
0.808289 0.455475 0.211823
0.831604 0.459747 0.210663
0.855408 0.463898 0.209473
0.879486 0.468231 0.208313
0.903870 0.472534 0.207336
0.185425 0.388794 0.220367
0.217010 0.392822 0.224854
0.247192 0.396759 0.229279
0.278168 0.400055 0.231903
0.304688 0.405121 0.232269
0.328461 0.411011 0.232117
0.351074 0.416962 0.231842
0.372589 0.423218 0.230804
0.397003 0.427490 0.230377
0.427094 0.428040 0.230743
0.453552 0.429962 0.231262
0.477234 0.433044 0.231934
0.499786 0.436493 0.232635
0.521454 0.440247 0.233459
0.542358 0.444489 0.234161
0.562744 0.448639 0.234436
0.582184 0.451141 0.232574
0.601593 0.453888 0.230774
0.621063 0.456879 0.229095
0.640656 0.459961 0.227448
0.660553 0.463196 0.225830
0.680939 0.466492 0.224304
0.701660 0.469940 0.222809
0.723114 0.473419 0.221313
0.745209 0.476898 0.219910
0.768005 0.480438 0.218506
0.791168 0.484161 0.217163
0.815063 0.487854 0.215820
0.838409 0.492126 0.214691
0.862183 0.496460 0.213562
0.886353 0.500885 0.212433
0.910797 0.505249 0.211426
0.194763 0.417358 0.225952
0.225403 0.421783 0.230042
0.254730 0.426147 0.234100
0.284973 0.429779 0.236359
0.310516 0.435333 0.236053
0.333679 0.441559 0.235504
0.355743 0.447845 0.234772
0.376740 0.454529 0.233398
0.400177 0.459381 0.232025
0.430786 0.459320 0.232605
0.457886 0.460663 0.233215
0.481689 0.463623 0.233826
0.504303 0.466949 0.234467
0.526031 0.470703 0.235138
0.547058 0.474762 0.235870
0.567596 0.479126 0.236511
0.587616 0.482941 0.236298
0.607147 0.485687 0.234528
0.626740 0.488617 0.232880
0.646515 0.491821 0.231232
0.666626 0.495026 0.229584
0.687134 0.498352 0.228058
0.708130 0.501770 0.226624
0.729797 0.505280 0.225159
0.752045 0.508850 0.223724
0.775055 0.512390 0.222382
0.798340 0.516205 0.221100
0.822235 0.519989 0.219818
0.845673 0.524384 0.218719
0.869507 0.528748 0.217621
0.893707 0.533173 0.216583
0.918182 0.537598 0.215576
0.200897 0.448578 0.229095
0.231262 0.453003 0.233215
0.260437 0.457458 0.237244
0.289948 0.461334 0.239105
0.315277 0.466888 0.238739
0.338318 0.473083 0.238190
0.360382 0.479279 0.237427
0.381012 0.485962 0.236115
0.403717 0.491333 0.233704
0.434814 0.490814 0.234314
0.462128 0.491852 0.234863
0.486084 0.494537 0.235596
0.508881 0.497650 0.236176
0.530731 0.501251 0.236847
0.551941 0.505157 0.237579
0.572601 0.509399 0.238281
0.592987 0.513855 0.239014
0.612946 0.517365 0.238220
0.632690 0.520325 0.236511
0.652649 0.523468 0.234924
0.672882 0.526703 0.233398
0.693665 0.530029 0.231873
0.714874 0.533478 0.230408
0.736786 0.536926 0.228973
0.759186 0.540558 0.227600
0.782318 0.544220 0.226288
0.805664 0.548096 0.225006
0.829620 0.551971 0.223816
0.853210 0.556366 0.222717
0.877136 0.560822 0.221710
0.901367 0.565247 0.220703
0.925934 0.569641 0.219727
0.207153 0.479950 0.232422
0.237396 0.484436 0.236542
0.266296 0.488892 0.240540
0.295044 0.493042 0.241943
0.320251 0.498596 0.241608
0.343170 0.504700 0.240967
0.365173 0.510742 0.240204
0.386108 0.517212 0.238708
0.408386 0.522675 0.236237
0.438995 0.522400 0.235992
0.466614 0.523041 0.236542
0.490631 0.525513 0.237274
0.513611 0.528503 0.237946
0.535675 0.531860 0.238678
0.556946 0.535645 0.239349
0.577789 0.539764 0.240021
0.598328 0.544067 0.240814
0.618774 0.548584 0.241516
0.638763 0.551880 0.240326
0.658905 0.554993 0.238739
0.679443 0.558167 0.237152
0.700378 0.561523 0.235657
0.721680 0.565125 0.234253
0.743896 0.568542 0.232849
0.766541 0.572205 0.231506
0.789795 0.575897 0.230164
0.813354 0.579773 0.228973
0.837372 0.583710 0.227783
0.861084 0.588135 0.226715
0.885101 0.592590 0.225739
0.909454 0.597107 0.224762
0.934021 0.601532 0.223785
0.213745 0.511505 0.235901
0.243591 0.516022 0.239960
0.272217 0.520447 0.243927
0.300323 0.524963 0.244965
0.325287 0.530365 0.244446
0.348022 0.536377 0.243866
0.369965 0.542419 0.243073
0.391174 0.548615 0.241425
0.413605 0.553833 0.238861
0.443573 0.553833 0.237701
0.471161 0.554321 0.238373
0.495361 0.556610 0.239014
0.518463 0.559387 0.239685
0.540558 0.562653 0.240448
0.562073 0.566193 0.241119
0.583038 0.570129 0.241852
0.603760 0.574310 0.242615
0.624420 0.578735 0.243378
0.645020 0.583313 0.244049
0.665314 0.586365 0.242462
0.686096 0.589600 0.240936
0.707306 0.592896 0.239471
0.728851 0.596466 0.238098
0.751007 0.600128 0.236725
0.773895 0.603790 0.235443
0.797424 0.607391 0.234192
0.821167 0.611328 0.232971
0.845337 0.615234 0.231812
0.869110 0.619720 0.230804
0.893250 0.624176 0.229797
0.917633 0.628693 0.228882
0.942322 0.633087 0.227936
0.220215 0.543213 0.239410
0.249878 0.547760 0.243408
0.278259 0.552246 0.247345
0.305511 0.556976 0.247894
0.330261 0.562347 0.247375
0.352966 0.568268 0.246796
0.375031 0.574066 0.245911
0.396698 0.579895 0.243988
0.419159 0.584961 0.241455
0.448364 0.585327 0.239441
0.475983 0.585632 0.240112
0.500183 0.587769 0.240814
0.523376 0.590302 0.241486
0.545593 0.593353 0.242218
0.567230 0.596771 0.242981
0.588409 0.600555 0.243744
0.609283 0.604645 0.244476
0.630157 0.608887 0.245270
0.650970 0.613373 0.246033
0.671936 0.617584 0.246216
0.692780 0.620819 0.244781
0.714325 0.624084 0.243347
0.736053 0.627686 0.241974
0.758453 0.631348 0.240692
0.781525 0.635101 0.239410
0.805298 0.638702 0.238129
0.829224 0.642578 0.236969
0.853485 0.646576 0.235901
0.877472 0.650970 0.234863
0.901703 0.655487 0.233948
0.926117 0.659912 0.233093
0.950806 0.664429 0.232147
0.226776 0.575104 0.242889
0.256134 0.579620 0.246918
0.284180 0.584167 0.250854
0.310822 0.589050 0.250946
0.335297 0.594452 0.250336
0.357819 0.600250 0.249756
0.379852 0.605957 0.248810
0.401978 0.611359 0.246704
0.424927 0.615967 0.243927
0.453369 0.616699 0.241211
0.480804 0.616974 0.241882
0.505127 0.618927 0.242584
0.528381 0.621307 0.243317
0.550751 0.624146 0.244080
0.572510 0.627441 0.244843
0.593842 0.631042 0.245575
0.614899 0.634979 0.246429
0.635925 0.639160 0.247192
0.657013 0.643463 0.248047
0.678314 0.647919 0.248901
0.699738 0.651855 0.248657
0.721405 0.655151 0.247253
0.743408 0.658813 0.245911
0.765930 0.662445 0.244659
0.789276 0.666168 0.243378
0.813171 0.669769 0.242157
0.837341 0.673676 0.240997
0.861938 0.677582 0.239929
0.885864 0.681976 0.239014
0.910156 0.686523 0.238129
0.934723 0.691040 0.237274
0.959473 0.695465 0.236359
0.233093 0.607178 0.246246
0.262115 0.611816 0.250244
0.289978 0.616394 0.254150
0.315857 0.621460 0.253784
0.340179 0.626678 0.253143
0.362610 0.632416 0.252594
0.384979 0.637787 0.251556
0.408447 0.642303 0.248810
0.431274 0.646790 0.246124
0.458588 0.648071 0.243011
0.485840 0.648224 0.243774
0.510101 0.650055 0.244446
0.533478 0.652283 0.245148
0.555908 0.655029 0.245941
0.577850 0.658142 0.246735
0.599274 0.661591 0.247498
0.620575 0.665344 0.248383
0.641815 0.669312 0.249176
0.663147 0.673492 0.250061
0.684662 0.677856 0.250916
0.706451 0.682404 0.251770
0.728516 0.686096 0.251190
0.750732 0.689697 0.249908
0.773590 0.693359 0.248627
0.797119 0.697052 0.247406
0.821289 0.700653 0.246246
0.845551 0.704498 0.245117
0.870209 0.708435 0.244080
0.894379 0.712830 0.243164
0.918762 0.717316 0.242279
0.943298 0.721832 0.241486
0.968140 0.726318 0.240692
0.239410 0.639404 0.249756
0.268188 0.644043 0.253693
0.295715 0.648651 0.257507
0.320923 0.653839 0.256744
0.344971 0.659058 0.255981
0.367310 0.664673 0.255402
0.389648 0.669861 0.254395
0.414032 0.673767 0.251312
0.438141 0.677338 0.247986
0.464569 0.678955 0.244873
0.491150 0.679382 0.245575
0.515289 0.681122 0.246307
0.538605 0.683258 0.247070
0.561127 0.685852 0.247925
0.583160 0.688782 0.248688
0.604767 0.692078 0.249512
0.626312 0.695679 0.250336
0.647736 0.699524 0.251251
0.669312 0.703644 0.252075
0.691071 0.707794 0.252960
0.713104 0.712158 0.253876
0.735596 0.716644 0.254822
0.758179 0.720367 0.253937
0.781250 0.724030 0.252716
0.804932 0.727692 0.251556
0.829376 0.731293 0.250366
0.853821 0.735199 0.249329
0.878662 0.739075 0.248322
0.902924 0.743439 0.247406
0.927338 0.747955 0.246643
0.951996 0.752441 0.245789
0.976807 0.756897 0.245056
0.245911 0.671539 0.253357
0.274384 0.676208 0.257233
0.301392 0.680878 0.260925
0.326233 0.686157 0.259888
0.350067 0.691284 0.259125
0.372345 0.696747 0.258606
0.394836 0.701691 0.257446
0.419952 0.704865 0.254028
0.444153 0.708221 0.250732
0.469788 0.710236 0.246735
0.496124 0.710663 0.247498
0.520355 0.712250 0.248291
0.543732 0.714203 0.249054
0.566315 0.716644 0.249908
0.588562 0.719421 0.250702
0.610352 0.722595 0.251556
0.632050 0.726013 0.252380
0.653748 0.729706 0.253265
0.675476 0.733612 0.254181
0.697571 0.737640 0.255127
0.719879 0.741913 0.256012
0.742676 0.746246 0.257050
0.765747 0.750793 0.257996
0.789062 0.754425 0.256866
0.813019 0.758057 0.255737
0.837585 0.761688 0.254547
0.862213 0.765442 0.253510
0.887207 0.769348 0.252502
0.911530 0.773743 0.251740
0.936066 0.778198 0.250885
0.960724 0.782684 0.250153
0.985626 0.787170 0.249451
0.252533 0.703674 0.257080
0.280762 0.708313 0.260986
0.307037 0.713226 0.264282
0.331726 0.718292 0.263275
0.355255 0.723419 0.262329
0.377441 0.728760 0.261810
0.399841 0.733521 0.260742
0.425293 0.736359 0.257141
0.450256 0.738983 0.253540
0.475586 0.740997 0.249695
0.501190 0.741913 0.249451
0.525452 0.743317 0.250244
0.548859 0.745148 0.251038
0.571655 0.747375 0.251892
0.593933 0.750031 0.252747
0.615997 0.753021 0.253632
0.637848 0.756317 0.254486
0.659698 0.759888 0.255432
