gube/testdata/Test_LUT8.CUBE
#Created by: Adobe Photoshop Export Color Lookup Plugin
TITLE "Test LUT 8"

#LUT size
LUT_3D_SIZE 8

#data domain
DOMAIN_MIN 0.0 0.0 0.0
DOMAIN_MAX 1.0 1.0 1.0

#LUT data points
0.056305 0.006653 0.050476
0.191254 0.010590 0.107666
0.314911 0.009583 0.157776
0.429993 0.006531 0.160004
0.525848 0.001862 0.164093
0.615295 0.000000 0.160065
0.704529 0.000031 0.156189
0.804382 0.000580 0.154022
0.077789 0.078247 0.158936
0.236145 0.089478 0.176849
0.363037 0.081909 0.178528
0.473267 0.068237 0.178619
0.566650 0.059967 0.181335
0.650818 0.070404 0.176056
0.742371 0.082031 0.172729
0.845337 0.094482 0.170715
0.119324 0.174988 0.182037
0.265289 0.188904 0.198181
0.384460 0.207733 0.194183
0.490845 0.196106 0.196625
0.583282 0.192261 0.197021
0.670746 0.203735 0.189240
0.766418 0.217346 0.182343
0.875671 0.230377 0.177002
0.152374 0.286957 0.201202
0.290619 0.303772 0.215057
0.404266 0.324249 0.213776
0.508087 0.333405 0.216919
0.597382 0.336304 0.215332
0.684540 0.350128 0.208069
0.781799 0.365265 0.201477
0.888947 0.381866 0.195709
0.192261 0.408997 0.224396
0.319183 0.429077 0.235046
0.425446 0.450348 0.232056
0.530792 0.463104 0.234833
0.619537 0.478668 0.232208
0.709320 0.493225 0.225311
0.809784 0.509247 0.219208
0.915985 0.528381 0.214386
0.221100 0.547760 0.239838
0.340820 0.569427 0.247528
0.444702 0.589996 0.239594
0.552673 0.598694 0.242676
0.645905 0.616394 0.246094
0.740265 0.632690 0.242371
0.844238 0.649292 0.236877
0.952087 0.668884 0.232758
0.249756 0.689880 0.255463
0.362671 0.711945 0.260742
0.469421 0.727661 0.249054
0.575836 0.734924 0.251282
0.672821 0.749634 0.255157
0.773315 0.768250 0.259430
0.881348 0.784882 0.255371
0.990601 0.804382 0.252045
0.280670 0.830841 0.274017
0.387817 0.851501 0.278107
0.493500 0.863831 0.266449
0.599335 0.870483 0.260803
0.701111 0.881805 0.265320
0.807220 0.897858 0.270203
0.907837 0.922943 0.266876
1.000000 0.948578 0.283295
0.068939 0.006836 0.153076
0.196411 0.009613 0.222260
0.318237 0.010925 0.266449
0.435150 0.006805 0.266968
0.531189 0.001495 0.271240
0.619934 0.000000 0.268402
0.709808 0.000427 0.266052
0.810974 0.001770 0.265137
0.095734 0.067352 0.254150
0.249512 0.078857 0.272858
0.367035 0.085693 0.288605
0.477509 0.071838 0.287537
0.571259 0.064056 0.290161
0.656219 0.074219 0.285950
0.748932 0.085602 0.283722
0.852936 0.097839 0.282959
0.134857 0.177155 0.279755
0.278870 0.190460 0.297333
0.402374 0.200562 0.300415
0.507507 0.188446 0.294037
0.598969 0.185120 0.293274
0.684875 0.196899 0.289001
0.778870 0.211182 0.285461
0.884308 0.225189 0.284698
0.167969 0.290161 0.299011
0.304504 0.305420 0.314636
0.418152 0.322327 0.312256
0.522400 0.331024 0.305389
0.611938 0.333496 0.303070
0.700165 0.346588 0.296570
0.798584 0.361450 0.290771
0.902496 0.378845 0.290527
0.206787 0.413025 0.323120
0.333099 0.431244 0.335785
0.436584 0.452148 0.330627
0.542175 0.465057 0.323517
0.631714 0.479187 0.321350
0.721924 0.493439 0.315430
0.822021 0.509827 0.310364
0.927216 0.529327 0.306549
0.234161 0.552490 0.341309
0.355377 0.571411 0.353577
0.456207 0.592133 0.345093
0.562256 0.603271 0.332550
0.656769 0.619476 0.336578
0.750916 0.635864 0.333771
0.854797 0.652313 0.329346
0.960480 0.671783 0.330475
0.261230 0.694122 0.365814
0.377045 0.713928 0.376160
0.479095 0.731323 0.363495
0.583588 0.741455 0.347076
0.681732 0.755493 0.346893
0.782410 0.773804 0.351837
0.889679 0.790039 0.351624
0.993011 0.810791 0.356689
0.291229 0.835266 0.386963
0.402100 0.854797 0.397614
0.502106 0.869934 0.382812
0.607544 0.876892 0.367065
0.709137 0.888855 0.364410
0.812439 0.906128 0.369476
0.908905 0.932251 0.369720
1.000000 0.958252 0.388458
0.080353 0.005096 0.275055
0.205475 0.005676 0.355408
0.328461 0.006958 0.381836
0.435913 0.007233 0.396332
0.532837 0.001343 0.399811
0.622223 0.000000 0.399323
0.713715 0.001068 0.399200
0.816010 0.004028 0.400116
0.112335 0.053925 0.369629
0.261017 0.065613 0.388977
0.374695 0.074615 0.408386
0.479187 0.074890 0.421082
0.573547 0.067688 0.423004
0.659332 0.077881 0.420471
0.752960 0.089264 0.420990
0.858154 0.101471 0.422119
0.148468 0.166290 0.397614
0.289062 0.179962 0.415833
0.409943 0.190491 0.425171
0.510895 0.188690 0.429688
0.602142 0.185944 0.427887
0.688141 0.197601 0.425140
0.782288 0.211334 0.424072
0.887054 0.225281 0.425629
0.180817 0.291595 0.420990
0.313782 0.306641 0.437653
0.424652 0.320770 0.442657
0.533417 0.324646 0.431885
0.622772 0.327423 0.423615
0.709869 0.340393 0.420135
0.806061 0.355286 0.419769
0.905670 0.373383 0.425751
0.217896 0.415131 0.446564
0.341003 0.433258 0.460571
0.443146 0.451752 0.462311
0.550476 0.463287 0.443634
0.640869 0.478149 0.433441
0.731201 0.491394 0.430450
0.829468 0.507416 0.431854
0.929901 0.526672 0.439148
0.244568 0.554810 0.468323
0.362701 0.573517 0.481720
0.462585 0.592163 0.483917
0.569611 0.601776 0.466064
0.663757 0.619202 0.459656
0.758057 0.635132 0.458679
0.859833 0.650879 0.461792
0.962097 0.670166 0.470093
0.271210 0.696960 0.492584
0.384094 0.716309 0.505371
0.484833 0.732666 0.508179
0.590942 0.739868 0.494568
0.687500 0.754333 0.492004
0.787598 0.771881 0.498383
0.892303 0.788147 0.502930
0.987671 0.813232 0.506500
0.300415 0.838562 0.514709
0.408630 0.857605 0.527527
0.507416 0.873505 0.530487
0.614136 0.878143 0.516754
0.715057 0.889130 0.516113
0.813141 0.909058 0.518036
0.907684 0.935028 0.520996
0.998077 0.963257 0.527557
0.091431 0.002563 0.413971
0.217346 0.002075 0.481079
0.337860 0.002258 0.502869
0.441742 0.002655 0.516602
0.533569 0.001251 0.531982
0.622803 0.000000 0.535400
0.716644 0.002045 0.538391
0.820038 0.006897 0.541199
0.128693 0.040436 0.492737
0.273254 0.051910 0.511658
0.384186 0.059937 0.531097
0.484711 0.066071 0.547791
0.575104 0.071228 0.558868
0.661621 0.081390 0.559021
0.756256 0.092712 0.561646
0.862457 0.104919 0.564789
0.162445 0.153595 0.520782
0.299377 0.167206 0.538422
0.415802 0.178223 0.548279
0.513580 0.184204 0.559937
0.602539 0.190155 0.566559
0.689117 0.201752 0.566376
0.783905 0.215515 0.567322
0.889221 0.229645 0.571136
0.195831 0.281677 0.542877
0.322632 0.298065 0.560394
0.428192 0.314697 0.567810
0.538177 0.318939 0.567444
0.625671 0.325897 0.567932
0.712616 0.338348 0.567413
0.808258 0.352997 0.569153
0.907318 0.370972 0.576538
0.231354 0.416748 0.569031
0.349457 0.435364 0.583252
0.443817 0.456696 0.589386
0.558350 0.458282 0.582611
0.648438 0.470734 0.579346
0.736633 0.484650 0.577972
0.833221 0.501434 0.579803
0.931366 0.522461 0.586853
0.255707 0.557648 0.590485
0.370819 0.576233 0.603699
0.463287 0.597717 0.609711
0.576996 0.599243 0.602203
0.668762 0.616272 0.599365
0.761963 0.632294 0.600403
0.862244 0.649048 0.603180
0.963135 0.669708 0.611084
0.282104 0.700317 0.612915
0.392059 0.719543 0.625305
0.487640 0.737762 0.630035
0.594635 0.741974 0.620697
0.690338 0.756073 0.619781
0.789886 0.773682 0.625854
0.894531 0.790192 0.630402
0.984467 0.819489 0.631622
0.310364 0.842377 0.634674
0.416016 0.861328 0.647064
0.509857 0.879120 0.651794
0.615234 0.881805 0.639832
0.717194 0.891418 0.641907
0.810791 0.914703 0.640961
0.905884 0.940308 0.644012
0.996460 0.968597 0.651001
0.101837 0.000000 0.553375
0.225494 0.000000 0.594543
0.342407 0.000000 0.614227
0.446625 0.000000 0.624390
0.536835 0.000000 0.639465
0.625549 0.000519 0.655029
0.720551 0.003693 0.660675
0.825043 0.010498 0.665039
0.136688 0.035339 0.606506
0.278259 0.048157 0.623474
0.387085 0.057190 0.640747
0.487823 0.063538 0.654907
0.577271 0.073853 0.669250
0.664825 0.085693 0.679260
0.760590 0.096924 0.683380
0.867859 0.109222 0.688019
0.166687 0.151367 0.631989
0.301819 0.166443 0.647552
0.416321 0.178528 0.656616
0.515350 0.183685 0.666077
0.604340 0.193695 0.680084
0.692017 0.206390 0.687286
0.787598 0.220276 0.689850
0.893738 0.234497 0.695099
0.198212 0.282166 0.650085
0.322998 0.299835 0.666779
0.426086 0.317932 0.674774
0.538605 0.320282 0.673553
0.626556 0.330536 0.685120
0.714386 0.343567 0.689880
0.810913 0.358215 0.693146
0.910797 0.376099 0.701508
0.232147 0.419891 0.673676
0.350250 0.438690 0.687836
0.443878 0.460846 0.695679
0.559387 0.462097 0.689453
0.647552 0.477081 0.691864
0.736786 0.491211 0.693695
0.834869 0.507751 0.697174
0.934235 0.528717 0.705688
0.268219 0.561096 0.699524
0.380219 0.579651 0.711548
0.469025 0.602112 0.718170
0.581238 0.603699 0.710571
0.666748 0.623260 0.703461
0.761475 0.639191 0.706512
0.864044 0.655396 0.711395
0.966461 0.675964 0.721191
0.294006 0.704437 0.719696
0.401123 0.723602 0.730835
0.492096 0.743530 0.736298
0.599121 0.746857 0.727448
0.689178 0.762421 0.722473
0.790344 0.779755 0.729126
0.892975 0.798981 0.732758
0.983154 0.828613 0.735840
0.321411 0.846863 0.740204
0.424591 0.865753 0.751160
0.513947 0.885315 0.756622
0.619629 0.886475 0.746643
0.714020 0.898926 0.742981
0.807648 0.922607 0.742798
0.904358 0.947632 0.746735
0.996338 0.975586 0.755127
0.093109 0.000000 0.678223
0.225861 0.000000 0.696625
0.343781 0.000000 0.713715
0.449677 0.000000 0.721222
0.540466 0.000000 0.733002
0.629974 0.001587 0.750336
0.725922 0.005920 0.763550
0.831726 0.014496 0.768921
0.136475 0.037964 0.708710
0.278503 0.050964 0.723480
0.388153 0.060028 0.737762
0.489746 0.066254 0.748779
0.580658 0.075775 0.761383
0.669312 0.089020 0.774567
0.765808 0.102203 0.783325
0.874176 0.114471 0.788849
0.166595 0.154938 0.730743
0.302338 0.170013 0.744293
0.416412 0.182709 0.752014
0.516693 0.187439 0.758636
0.606445 0.197327 0.769928
0.695190 0.211700 0.782471
0.791962 0.226471 0.788879
0.898590 0.240845 0.795013
0.198181 0.286316 0.746674
0.324219 0.303650 0.761322
0.426178 0.322479 0.768646
0.539978 0.324249 0.766083
0.628845 0.334381 0.775085
0.717896 0.349243 0.787262
0.815521 0.364227 0.792816
0.916260 0.382141 0.801483
0.232422 0.424500 0.767548
0.351593 0.442963 0.779755
0.445557 0.465027 0.786530
0.560760 0.466553 0.780060
0.649414 0.481720 0.782135
0.740021 0.497650 0.793274
0.839355 0.514038 0.798065
0.939728 0.534973 0.807190
0.269775 0.565765 0.790009
0.382446 0.584320 0.800323
0.472260 0.606659 0.806549
0.583832 0.608978 0.799316
0.670166 0.628265 0.795532
0.764435 0.645813 0.802795
0.868469 0.661926 0.808746
0.972107 0.682434 0.818970
0.306427 0.709229 0.811096
0.410767 0.728394 0.820374
0.498688 0.749084 0.825470
0.604919 0.752167 0.817291
0.694458 0.767700 0.814575
0.792969 0.786316 0.818756
0.892212 0.808960 0.820801
0.983643 0.838074 0.825562
0.332947 0.852051 0.829712
0.433655 0.870911 0.838806
0.520294 0.891266 0.843933
0.625427 0.891876 0.835693
0.714783 0.907745 0.831085
0.805908 0.931366 0.830139
0.904053 0.956024 0.834778
0.997223 0.983582 0.843597
0.093109 0.000000 0.776978
0.226501 0.000000 0.792572
0.348145 0.000000 0.805450
0.453949 0.000000 0.808533
0.545197 0.000000 0.817719
0.635376 0.002716 0.832489
0.733795 0.007538 0.847534
0.841370 0.017731 0.856415
0.135162 0.041443 0.801941
0.277649 0.054840 0.814270
0.387360 0.065155 0.822632
0.490814 0.070709 0.830811
0.583801 0.079071 0.841949
0.673401 0.092224 0.852692
0.769836 0.108032 0.862122
0.879120 0.121460 0.869965
0.165253 0.159851 0.818939
0.301514 0.175201 0.830231
0.415131 0.188904 0.836243
0.517151 0.193176 0.839355
0.607422 0.203186 0.847626
0.696899 0.217560 0.857758
0.794708 0.234131 0.867462
0.901184 0.249512 0.875427
0.198395 0.291168 0.833221
0.325439 0.308441 0.845215
0.427185 0.327667 0.851135
0.541718 0.329224 0.847382
0.631317 0.339325 0.853882
0.721405 0.354095 0.863647
0.820312 0.371033 0.873688
0.921631 0.389160 0.882812
0.232819 0.429657 0.851624
0.353516 0.447845 0.861206
0.447784 0.469788 0.866638
0.563171 0.471466 0.859955
0.652008 0.487030 0.861816
0.743896 0.502808 0.870819
0.844727 0.520935 0.880676
0.945953 0.541748 0.890289
0.271820 0.570892 0.870422
0.384430 0.589600 0.879120
0.474609 0.611786 0.884186
0.585571 0.614685 0.876801
0.673065 0.633759 0.875397
0.768738 0.651245 0.882843
0.874268 0.668304 0.892731
0.977692 0.689453 0.902771
0.308746 0.714691 0.888947
0.413635 0.733856 0.897003
0.502411 0.754486 0.901459
0.608307 0.757904 0.894196
0.698914 0.773193 0.893890
0.797180 0.792328 0.898621
0.892578 0.818726 0.900543
0.984924 0.847534 0.906128
0.344238 0.857666 0.907745
0.442566 0.876526 0.915497
0.529175 0.896088 0.919525
0.631592 0.897675 0.913269
0.716919 0.916809 0.908508
0.807098 0.940155 0.909149
0.904236 0.964661 0.913422
0.998688 0.991882 0.922638
0.094482 0.000000 0.863190
0.228241 0.000000 0.876068
0.350739 0.000000 0.886169
0.457947 0.000000 0.889496
0.549988 0.000641 0.895721
0.641052 0.003967 0.908142
0.739288 0.010254 0.919708
0.848145 0.021484 0.929138
0.136749 0.044739 0.884644
0.279358 0.058319 0.894958
0.389130 0.068817 0.901184
0.493042 0.074524 0.906891
0.587250 0.082428 0.916321
0.677917 0.095428 0.925293
0.774841 0.111786 0.932434
0.884827 0.127350 0.941345
0.167114 0.163849 0.899200
0.303589 0.179291 0.908875
0.417114 0.192993 0.913666
0.519714 0.197357 0.914795
0.610657 0.207306 0.921143
0.700989 0.221741 0.929321
0.799927 0.238403 0.937469
0.907349 0.255859 0.947144
0.198639 0.295959 0.912933
0.327820 0.312958 0.922028
0.429596 0.332153 0.926849
0.544373 0.333771 0.922211
0.634705 0.343872 0.926910
0.725769 0.358612 0.934906
0.825836 0.375641 0.943298
0.927979 0.395721 0.954315
0.234772 0.434692 0.928253
0.355957 0.452728 0.936310
0.450348 0.474670 0.940735
0.566101 0.476318 0.933441
0.655090 0.492401 0.935272
0.748260 0.508148 0.942932
0.850281 0.526428 0.951843
0.952576 0.548767 0.963379
0.274353 0.576111 0.944977
0.386963 0.594788 0.952606
0.477234 0.617004 0.956726
0.587830 0.620422 0.949066
0.676422 0.639313 0.949615
0.773499 0.656647 0.956635
0.880157 0.673950 0.966095
0.979156 0.699860 0.974854
0.311310 0.720215 0.962036
0.416168 0.739380 0.969086
0.505066 0.759979 0.972778
0.610809 0.763702 0.965912
0.702545 0.778778 0.967468
0.797455 0.801178 0.970917
0.893463 0.827789 0.973999
0.986481 0.856781 0.981659
0.355835 0.859314 0.976257
0.455780 0.876709 0.982330
0.536896 0.899506 0.988464
0.632080 0.907196 0.982269
0.718262 0.925873 0.980072
0.808960 0.948914 0.982697
0.905823 0.973145 0.988434
1.000000 1.000000 1.000000
