gube/testdata/Test_LUT32.CUBE
#Created by: Adobe Photoshop Export Color Lookup Plugin
TITLE "Test CubeLut 32"
#LUT size
LUT_3D_SIZE 5
#data domain
#LUT data points
DOMAIN_MIN 0.000000 0.000000 0.000000
DOMAIN_MAX 0.903226 0.903226 0.903226
0.056305 0.006653 0.050476
0.262878 0.010406 0.143219
0.446045 0.005920 0.160706
0.592285 0.000000 0.162140
0.735352 0.000183 0.155396
0.104065 0.132385 0.173035
0.326019 0.157318 0.189789
0.501160 0.137848 0.188446
0.643677 0.140472 0.184052
0.792450 0.161102 0.177765
0.158447 0.306061 0.204681
0.357147 0.337982 0.216248
0.526642 0.354858 0.220734
0.664734 0.369598 0.212677
0.819489 0.394043 0.202484
0.213745 0.511505 0.235901
0.391174 0.548615 0.241425
0.562073 0.566193 0.241119
0.707306 0.592896 0.239471
0.869110 0.619720 0.230804
0.259521 0.735596 0.261200
0.430695 0.767578 0.261047
0.599396 0.780579 0.254822
0.757019 0.805267 0.261536
0.929047 0.833496 0.260468
0.075714 0.005981 0.220978
0.273499 0.008118 0.322998
0.452484 0.006226 0.339722
0.599182 0.000000 0.341431
0.743988 0.001343 0.339447
0.128174 0.122589 0.335754
0.348633 0.141663 0.361420
0.514343 0.135162 0.367706
0.654541 0.139648 0.365173
0.803955 0.159790 0.362823
0.181305 0.310333 0.372253
0.376404 0.336548 0.392670
0.547241 0.351501 0.369598
0.686920 0.365448 0.357941
0.840149 0.389648 0.357117
0.233185 0.517456 0.408936
0.411194 0.549133 0.424133
0.576538 0.571136 0.394104
0.723846 0.597260 0.385925
0.883392 0.622955 0.389496
0.276306 0.741455 0.447052
0.444122 0.773102 0.463379
0.611023 0.786957 0.437775
0.768829 0.811310 0.438080
0.931213 0.842621 0.445099
0.093262 0.002075 0.436707
0.290039 0.001556 0.513702
0.458038 0.001770 0.537476
0.599945 0.000000 0.554932
0.749176 0.003387 0.560272
0.152313 0.101288 0.529633
0.360565 0.121246 0.555389
0.518921 0.130493 0.578156
0.657135 0.145416 0.586609
0.808502 0.165558 0.589783
0.204193 0.301453 0.565521
0.386871 0.330902 0.588379
0.557220 0.341553 0.589447
0.693726 0.358307 0.589355
0.844421 0.382233 0.593872
0.250793 0.521606 0.603455
0.421906 0.552429 0.621490
0.587067 0.565857 0.613831
0.730347 0.591949 0.611877
0.886597 0.619049 0.617249
0.292938 0.746979 0.638123
0.454590 0.778107 0.654999
0.616028 0.790314 0.642944
0.772339 0.813721 0.648071
0.926392 0.850616 0.651917
0.094635 0.000000 0.648041
0.294098 0.000000 0.682281
0.463898 0.000000 0.698486
0.605255 0.000549 0.722839
0.756927 0.007050 0.740326
0.155731 0.101990 0.697876
0.360901 0.124695 0.719299
0.521790 0.133514 0.735474
0.662140 0.152130 0.756409
0.816193 0.173584 0.766785
0.203766 0.306946 0.725739
0.387939 0.336060 0.746368
0.558136 0.347137 0.746033
0.697418 0.366791 0.763763
0.850555 0.390961 0.772766
0.259247 0.527954 0.762024
0.429260 0.558502 0.777435
0.591827 0.573181 0.771606
0.731598 0.602753 0.774841
0.892090 0.629242 0.784241
0.311768 0.754089 0.794983
0.467590 0.785126 0.808472
0.623932 0.798370 0.799896
0.774689 0.823059 0.801453
0.924896 0.864655 0.804138
0.093414 0.000000 0.806000
0.298615 0.000000 0.828308
0.470581 0.000000 0.835907
0.613373 0.002167 0.853638
0.769318 0.011566 0.874878
0.152740 0.109497 0.838715
0.357574 0.133636 0.855164
0.521973 0.142822 0.861694
0.664185 0.161255 0.876160
0.819366 0.186737 0.890869
0.204102 0.314636 0.861877
0.390625 0.343506 0.876801
0.561432 0.354706 0.874023
0.702942 0.374207 0.885742
0.858948 0.401550 0.901398
0.262543 0.535858 0.890289
0.432770 0.566498 0.901855
0.594849 0.582062 0.895416
0.737701 0.611115 0.900909
0.901459 0.639465 0.916901
0.321350 0.762756 0.918732
0.476013 0.793640 0.929321
0.631287 0.807281 0.922974
0.776428 0.836731 0.924408
0.925720 0.879364 0.929565
